!!!!SEGMENT: pl-kozmzk--mzk-m-33--001_szymanowska-maria--peine-et-plaisir-tout-finira.krn
!!!cenid: 18xx:2736
!!!COM: Szymanowska, Maria
!!!COM-rismID: pe140138
!!!CDT: 1789/12/14-1831/07/25
!!!CNT: Polish
!!!OTL: Peine et plaisir tout finira
!!!PDT:
!!!AGN: Secular
!!!SMS-siglum: PL-KOZmzk
!!!SMS-shelfmark: mzk/m/33
!!!SMS-shelfwork: 001 W
!!!SMS-variant:
!!!SMS-altvar:
!!!NIFC-rismSourceID: 1001095267
!!!NIFC-rismChildID: 1001082116
!!!NIFC-islandoraID: pl-kozmzk:6878
!!!URL-pdf-islandora: https://repozytorium.nifc.pl/islandora/object/pl-kozmzk%3A6878/datastream/PDF/view
!!!URL-scan: https://polish.musicsources.pl/pl/lokalizacje/galeria/klocki-introligatorskie/380 @EN{Scan on Polish Music Sources Website} @PL{Skany w portalu Dziedzictwo Muzyki Polskiej w otwartym dostępie}
!!!IIIF:
!!!ONB-nifc: UWAGA: „Six Romances” M. Szymanowskiej na str. 63-70
!!!OMD: Grazioso
!!!AIN: 2 piano 1 vox
!!!key:
**kern	**kern	**dynam	**kern	**text	**dynam
*part3	*part2	*part2	*part1	*part1	*part1
*staff3	*staff2	*	*staff1	*staff1	*
*Ipiano	*Ipiano	*	*Ivox	*	*
*I"Pianoforte	*I"Pianoforte	*	*I"Chant	*	*
*	*	*	*mI"Voce	*	*
*I'pf	*I'pf	*	*I'vox humana	*	*
*	*	*	*mI'V	*	*
*clefF4	*clefG2	*	*clefG2	*	*
*k[b-]	*k[b-]	*	*k[b-]	*	*
*F:	*F:	*	*F:	*	*
*M6/8	*M6/8	*	*M6/8	*	*
=1	=1	=1	=1	=1	=1
4.F\	16r	p	8a/	Peine	.
.	16A/LL	.	.	.	.
.	16c/	.	8g/	et	.
!	!LO:MO:mod=!LO&colon;TX&colon;a&colon;i&colon;t=distinctement	!	!	!	!
!	!LO:TX:t=dis_tin_cte_ment:dur=2qs:ext2=ud:problem=text with extention lines	!	!	!	!
.	16f/	.	.	.	.
.	16A/	.	8f/	plai-	.
.	16c/JJ	.	.	.	.
.	.	.	(8qqe/	.	.
4.BB-/	16r	.	4d/)	-sir	.
.	16B-/LL	.	.	.	.
.	16d/	.	.	.	.
.	16g/	.	.	.	.
.	16B-/	.	8r	.	.
.	16d/JJ	.	.	.	.
=2	=2	=2	=2	=2	=2
4.C/	16r	.	8cc/	tout	.
.	16G/LL	.	.	.	.
.	16B-/	.	8bn/	fi-	.
.	16e/	.	.	.	.
.	16G/	.	8b-X/	-ni-	.
.	16B-/JJ	.	.	.	.
.	.	.	(>8qg#X/	.	.
4.F\	16r	.	4a/)	-ra,	.
.	16A/LL	.	.	.	.
.	16c/	.	.	.	.
.	16f/	.	.	.	.
.	16A/	.	8r	.	.
.	16c/JJ	.	.	.	.
!!LO:LB:g=original
=3	=3	=3	=3	=3	=3
!	!	!LO:MO:mod=!null:null	!	!	!
4.AA-X/	16r	p	8ff\	tu	.
!	!LO:SIC:s=16A-/LL:v	!	!	!	!
.	16A/LL	.	.	.	.
.	16c/	.	8ee\	me	.
.	16f/	.	.	.	.
!	!LO:SIC:s=16A-/:v	!	!	!	!
.	16A/	.	8ee-X\	l`as	.
.	16c/JJ	.	.	.	.
.	.	.	(8qqcc#X/	.	.
4.BB-/	16r	.	4dd\)	dit	.
.	16B-/LL	.	.	.	.
.	16d/	.	.	.	.
.	16g/	.	.	.	.
.	16B-/	.	8r	.	.
.	16d/JJ	.	.	.	.
=4	=4	=4	=4	=4	=4
!	!	!	!LO:SIC:s=8dd\:v	!	!
4.C/	16r	.	8dd'\	je	.
.	16G/LL	.	.	.	.
.	16B-/	.	8cc\	veux	.
.	16e/	.	.	.	.
.	16G/	.	8e/	le	.
.	16B-/JJ	.	.	.	.
4FF/	16r	.	8g/	cro-	.
.	16A/LL	.	.	.	.
.	16c/	.	8f/	-ire	.
.	16f/	.	.	.	.
8r	16A/	.	8r	.	.
.	16c/JJ	.	.	.	.
=5	=5	=5	=5	=5	=5
4.GG/	16r	.	8g/	mon	.
!	!	!LO:DY:b:rj	!	!	!
.	16G/LL	sf	.	.	.
.	16Bn/	.	8f#X/	âme	.
.	16f/	.	.	.	.
.	16G/	.	8fn/	un	.
.	16B/JJ	.	.	.	.
.	.	.	(8qd#X/	.	.
4C/	16r	.	4e/)	jour	.
.	16G/LL	.	.	.	.
.	16c/	.	.	.	.
.	16e/	.	.	.	.
8r	16G/	.	8r	.	.
.	16c/JJ	.	.	.	.
=6	=6	=6	=6	=6	=6
4.AA/	16r	.	8a/	sur	.
!	!	!LO:DY:b:rj	!	!	!
.	16A/LL	sf	.	.	.
.	16c#X/	.	8g#X/	l`on-	.
.	16g/	.	.	.	.
.	16A/	.	8gn/	-de	.
.	16c#/JJ	.	.	.	.
4D/	16r	.	8e/	noi-	.
.	16A/LL	.	.	.	.
.	16d/	.	8f/	-re,	.
.	16f/	.	.	.	.
8r	16A/	.	8r	.	.
.	16d/JJ	.	.	.	.
!!LO:LB:g=original
=7	=7	=7	=7	=7	=7
4.E\	16r	.	8cc/	a-	.
.	16c/LL	.	.	.	.
.	16g/	.	8bn/	-vec	.
.	16b-/	.	.	.	.
.	16c/	.	8b-X/	Ca-	.
.	16e/JJ	.	.	.	.
4F\	16r	.	(8a/L	-ron	.
.	16c/LL	.	.	.	.
.	16f/	.	8cc/J)	.	.
.	16a/	.	.	.	.
8F#X\	16e-X/	.	8r	.	.
.	16cc/JJ	.	.	.	.
=8	=8	=8	=8	=8	=8
4G\	16en/LL	<	8cc\	s`em-	.
.	16cc/	.	.	.	.
.	16f/	.	8dd\	-bar-	.
.	16dd/	.	.	.	.
8GG/	16d/	.	8bn\	-que-	.
.	16bn/JJ	.	.	.	.
!	!	!	!	!LO:MO:mod=-ra,	!
4C/	16e/LL	.	(4gg^\	-ra	.
.	16g/	.	.	.	.
.	16cc/	.	.	.	.
.	16d/	.	.	.	.
8G 8GG^<\	16f/	.	8ff\)	.	.
!	!LO:SIC:s=16bny/JJ:v	!	!	!	!
.	16bn/JJ	[[	.	.	.
=9	=9	=9	=9	=9	=9
4C/	16e/LL	.	8ee\	s`em-	.
.	16cc/	.	.	.	.
.	16f/	.	8ff\	-bar-	.
.	16dd/	.	.	.	.
8GG/	16d/	.	8dd\	-que-	.
.	16bn/JJ	.	.	.	.
4.CC/	16e/LL	>	4cc\	-ra	.
.	16cc/	.	.	.	.
.	16c/	.	.	.	.
.	16b-X/	.	.	.	.
.	16B-/	.	8r	.	.
.	16g/JJ	]]	.	.	.
!!LO:LB:g=original
=10	=10	=10	=10	=10	=10
4.FF/	16r	.	8a/	et	.
.	16A/LL	.	.	.	.
.	16c/	.	8g/	lors	.
.	16f/	.	.	.	.
!	!LO:MO:mod=!LO&colon;TX&colon;a&colon;i&colon;t=stiracchiato	!	!	!	!
!	!LO:TX:t=sti_rac_chia_to:dur=2qe:ext2=ud:problem=text with extention lines	!	!	!	!
.	16A/	.	8f/	peut	.
.	16c/JJ	.	.	.	.
4BB-/	16r	.	16e/	êt-	.
.	16B-/LL	.	16d/	-re	.
!	!	!	!LO:SIC:s=([>4b-^/:v	!	!
.	16d/	.	[>4b-^/	Se-	.
.	16g/	.	.	.	.
8r	16B-/	.	.	.	.
.	16d/JJ	.	.	.	.
=11	=11	=11	=11	=11	=11
4.GG/	16r	.	8b-/L]	.	.
.	16B-/LL	.	.	.	.
!	!	!	!LO:SIC:s=8a/J):v	!	!
.	16d/	.	8a/J	.	.
.	16g/	.	.	.	.
.	16B-/	.	8g/	-di-	.
.	16d/JJ	.	.	.	.
!	!	!	!LO:SIC:s=(16f/LL:v	!	!
4C/	16r	.	16f/LL	-ra	.
!	!	!	!LO:SIC:s=16e/JJ):v	!	!
.	16c/LL	.	16e/JJ	.	.
.	16e/	.	[>4cc/	pei-	.
.	16g/	.	.	.	.
8r	16c/	.	.	.	.
.	16e/JJ	.	.	.	.
=12	=12	=12	=12	=12	=12
4.AA/	16r	.	8cc/]	-ne	.
.	16c/LL	.	.	.	.
.	16e/	.	8b-/	et	.
.	16a/	.	.	.	.
.	16c/	.	8a/	plai-	.
.	16e/JJ	.	.	.	.
!	!	!	!LO:SIC:s=(16g/LL:v	!	!
4D/	16r	.	16g/LL	-sir	.
!	!	!	!LO:SIC:s=16f/JJ):v	!	!
.	16d/LL	.	16f/JJ	.	.
!	!	!	!LO:SIC:s=([4dd^\:v	!	!
.	16f/	.	[4dd^\	tout	.
.	16a/	.	.	.	.
8r	16d/	.	.	.	.
.	16b-/JJ	.	.	.	.
!!LO:PB:g=original
=13	=13	=13	=13	=13	=13
4E/	16b-/LL	.	16dd\LL]	.	.
!	!	!	!LO:SIC:s=16cc\JJ):v	!	!
.	16c/	.	16cc\JJ	.	.
.	16b- 16g/	.	(16bn\LL	fi-	.
.	16c/	.	16cc\	.	.
8C/	16b- 16g/	.	16b-X\JJ)	.	.
.	16c/JJ	.	16cc\	-ni-	.
!	!	!	!	!LO:MO:mod=-ra,	!
4F\	16r	.	(16a\LL	-ra	.
.	16c/LL	.	16cc\	.	.
.	16a 16f/	.	16ff\	.	.
.	16c/	.	16ee\	.	.
8C/	16a 16f/	.	16dd\	.	.
.	16c/JJ	.	16cc\JJ)	.	.
=14	=14	=14	=14	=14	=14
!	!	!	!LO:SIC:s=(16cc\LL:v	!	!
4G\	16r	.	16cc\LL	tout	.
!	!	!	!LO:SIC:s=16b-\JJ):v	!	!
.	16c/LL	.	16b-\JJ	.	.
!	!	!	!LO:SIC:s=(16a\LL:v	!	!
.	16b- 16e/	.	16a\LL	fi-	.
.	16c/	.	16b-\	.	.
!	!	!	!LO:SIC:s=16cc\JJ):v	!	!
8C/	16b- 16e/	.	16cc\JJ	.	.
.	16c/JJ	.	16b-\	-ni-	.
4F\	16r	.	4a/	-ra	.
.	16c/LL	.	.	.	.
.	16a 16f/	.	.	.	.
.	16c/	.	.	.	.
8r	16a 16f/	.	8r	.	.
.	16c/JJ	.	.	.	.
=15	=15	=15	=15	=15	=15
!	!LO:MO:mod=!LO&colon;TX&colon;a&colon;i&colon;t=rall.	!	!	!	!
!	!LO:TX:a:i:t=rall	!	!	!	!
!	!	!	!LO:MO:mod=!LO&colon;TX&colon;a&colon;i&colon;t=rall.	!	!
!	!	!	!null	!	!
4BB-/	16r	.	8.g/	peine	.
.	16B-/LL	.	.	.	.
.	16d/	.	.	.	.
.	16g/	.	16d/	et	.
8r	16B-/	.	16b-^>/	.	.
.	16d/JJ	.	16a/	plai-	.
4BB-;/	4g 4d 4B-;/	.	16g;/	-sir,	.
.	.	.	16cc#X^>/	peine	.
.	.	.	16dd/	et	.
.	.	.	16a/	plai-	.
!	!LO:MO:mod=!LO&colon;TX&colon;a&colon;B&colon;t=a tempo	!	!	!	!
!	!LO:TX:a:i:t=a tempo	!	!	!	!
!	!	!	!LO:MO:mod=!LO&colon;TX&colon;a&colon;B&colon;t=a tempo	!	!
!	!	!	!null	!	!
8r	8r	.	16b-/	-sir	.
.	.	.	16g/	tout	.
=16	=16	=16	=16	=16	=16
4C/	16A/LL	.	(8a/L	fi-	.
.	16f/	.	.	.	.
.	16B-/	.	8b-/J)	.	.
.	16b-/	.	.	.	.
8CC/	16G/	.	8g/	-ni-	.
.	16g/JJ	.	.	.	.
!	!	!	!	!LO:MO:mod=-ra,	!
4AA^>/	16A/LL	.	(4cc^\	-ra	.
.	16c/	.	.	.	.
.	16f/	.	.	.	.
.	16A/	.	.	.	.
8BB-/	16B-/	.	8b-\)	.	.
.	16g/JJ	.	.	.	.
!!LO:LB:g=original
=17	=17	=17	=17	=17	=17
4C/	16A/LL	.	8a/	tout	.
.	16f/	.	.	.	.
.	16B-/	.	8b-/	fi-	.
.	16g/	.	.	.	.
8CC/	16G/	.	8g/	-ni-	.
.	16e/JJ	.	.	.	.
!	!	!	!	!LO:MO:mod=-ra,	!
4AA^>/	16A/LL	.	(4cc^\	-ra	.
.	16c/	.	.	.	.
.	16f/	.	.	.	.
.	16A/	.	.	.	.
8BB-/	16B-/	.	8b-\)	.	.
.	16g/JJ	.	.	.	.
=18	=18	=18	=18	=18	=18
!	!	!LO:DY:rj	!	!	!
8C/L	8fL 8A/	f	8a/	tout	.
8C 8CC/	8g 8B-/	.	8b-/	fi-	.
8CJ 8CC/	8eJ 8G/	.	8g/	-ni-	.
16FF/LL	4f 4A/	.	4f/	-ra.	.
16AA/	.	.	.	.	.
16C/	.	.	.	.	.
16F/	.	.	.	.	.
16A/	16r	.	8r	.	.
16c/JJ	16a/	.	.	.	.
=19	=19	=19	=19	=19	=19
16C\LL	4cc\	p	2.ryy	.	.
16G\	.	.	.	.	.
16B-\	.	.	.	.	.
16e\	.	.	.	.	.
16B-\	8b-\	.	.	.	.
16G\JJ	.	.	.	.	.
!	!LO:MO:mod=!LO&colon;TX&colon;b&colon;i&colon;t=espress.	!	!	!	!
!	!LO:TX:b:i:t=espres	!	!	!	!
16C\LL	8g/LsSSS<	.	.	.	.
16G\	.	.	.	.	.
16B-\	8a/	.	.	.	.
16e\	.	.	.	.	.
16B-\	8b-/J	.	.	.	.
16G\JJ	.	.	.	.	.
=20	=20	=20	=20	=20	=20
16C\LL	16cc\LL	.	2.r	.	.
16A\	16dd\	.	.	.	.
16c\	16cc\	.	.	.	.
16f\	16bn\	.	.	.	.
16A\	16cc\	.	.	.	.
16F\JJ	16a\JJ	.	.	.	.
16C\LL	16ff'\LL	.	.	.	.
16A\	(16ee\	.	.	.	.
16c\	16dd\)	.	.	.	.
16f\	16cc'\	.	.	.	.
16A\	(16b-X\	.	.	.	.
16F\JJ	16a\JJ)	.	.	.	.
=21	=21	=21	=21	=21	=21
16CC/LL	4cc\	.	2.r	.	.
16GG/	.	.	.	.	.
16BB-/	.	.	.	.	.
16E/	.	.	.	.	.
16BB-/	8b-\	.	.	.	.
16GG/JJ	.	.	.	.	.
16CC/LL	8g/L	.	.	.	.
16GG/	.	.	.	.	.
16BB-/	8a/	.	.	.	.
16E/	.	.	.	.	.
16G/	8g/J	.	.	.	.
16B-/JJ	.	.	.	.	.
=22	=22	=22	=22	=22	=22
!	!	!	!LO:TX:t=P:problem=pojedyncza kreska taktowa	!	!
(16c\LL	(4.g^>/	.	2.r;	.	.
16Bn\	.	.	.	.	.
16d-X^\	.	.	.	.	.
16c\	.	.	.	.	.
16B\	.	.	.	.	.
16c\JJ	.	.	.	.	.
4A\)	4f/)	.	.	.	.
8r;	8r;	.	.	.	.
!!LO:LB:g=original
=|!23	=|!23	=|!23	=|!23	=|!23	=|!23
!	!	!	!LO:MO:mod=!null:null	!	!
!	!	!	!LO:TX:a:i:t=2me Couplet	!	!
4.F\yy	16ryy	py	(8a/L	Mais	.
.	16A/LLyy	.	.	.	.
.	16c/yy	.	8g/J)	.	.
!	!LO:MO:mod=!LO&colon;TX&colon;a&colon;i&colon;t=distinctement	!	!	!	!
!	!LO:TX:a:i:t=dis-tin-cte--ment	!	!	!	!
.	16f/yy	.	.	.	.
.	16A/yy	.	8f/	tant	.
.	16c/JJyy	.	.	.	.
4.BB-/yy	16ryy	.	4e/	que	.
.	16B-/LLyy	.	.	.	.
.	16d/yy	.	.	.	.
.	16g/yy	.	.	.	.
.	16B-/yy	.	8d/	la	.
.	16d/JJyy	.	.	.	.
=24	=24	=24	=24	=24	=24
4.C/yy	16ryy	.	8cc\	Parque	.
.	16G/LLyy	.	.	.	.
.	16B-/yy	.	8bn\	in-	.
.	16e/yy	.	.	.	.
.	16G/yy	.	8b-X\	-hu-	.
.	16B-/JJyy	.	.	.	.
4.F\yy	16ryy	.	4g#X/	-ma-	.
.	16A/LLyy	.	.	.	.
.	16c/yy	.	.	.	.
.	16f/yy	.	.	.	.
.	16A/yy	.	8a/	-ine	.
.	16c/JJyy	.	.	.	.
=25	=25	=25	=25	=25	=25
4.AA-X/yy	16ryy	py	8ff^\	mes	.
!	!LO:SIC:s=16A-/LLyy:v	!	!	!	!
.	16A/LLyy	.	.	.	.
.	16c/yy	.	8ee\	tris-	.
.	16f/yy	.	.	.	.
!	!LO:SIC:s=16A-/yy:v	!	!	!	!
.	16A/yy	.	8ee-X\	-tes	.
.	16c/JJyy	.	.	.	.
.	.	.	(>8qcc#X/	.	.
4.BB-/yy	16ryy	.	4dd\)	jours	.
.	16B-/LLyy	.	.	.	.
.	16d/yy	.	.	.	.
.	16g/yy	.	.	.	.
.	16B-/yy	.	8r	.	.
.	16d/JJyy	.	.	.	.
=26	=26	=26	=26	=26	=26
4.C/yy	16ryy	.	8dd^\	con-	.
.	16G/LLyy	.	.	.	.
.	16B-/yy	.	8cc\	-ser-	.
.	16e/yy	.	.	.	.
.	16G/yy	.	8e/	-ve-	.
.	16B-/JJyy	.	.	.	.
4FF/yy	16ryy	.	4f/	-ra	.
.	16A/LLyy	.	.	.	.
.	16c/yy	.	.	.	.
.	16f/yy	.	.	.	.
8ryy	16A/yy	.	8r	.	.
.	16c/JJyy	.	.	.	.
=27	=27	=27	=27	=27	=27
4.GG/yy	16ryy	sfy	8g/	pour	.
.	16G/LLyy	.	.	.	.
.	16Bn/yy	.	8f#X/	rai-	.
.	16f/yy	.	.	.	.
.	16G/yy	.	8fn/	-je	.
.	16B/JJyy	.	.	.	.
4C/yy	16ryy	.	4d#X/	dire	.
.	16G/LLyy	.	.	.	.
.	16c/yy	.	.	.	.
.	16e/yy	.	.	.	.
8ryy	16G/yy	.	8e/	Oh!	.
.	16c/JJyy	.	.	.	.
!!LO:LB:g=original
=28	=28	=28	=28	=28	=28
4.AA/yy	16ryy	sfy	(8a/L	ma	.
.	16A/LLyy	.	.	.	.
.	16c#X/yy	.	8g#X/J)	.	.
.	16g/yy	.	.	.	.
.	16A/yy	.	8gn/	Cli-	.
.	16c#/JJyy	.	.	.	.
4D/yy	16ryy	.	4e/	-mè-	.
.	16A/LLyy	.	.	.	.
.	16d/yy	.	.	.	.
.	16f/yy	.	.	.	.
8ryy	16A/yy	.	8f/	-ne	.
.	16d/JJyy	.	.	.	.
=29	=29	=29	=29	=29	=29
4.E\yy	16ryy	.	8cc\	peine	.
.	16c/LLyy	.	.	.	.
.	16g/yy	.	8bn\	et	.
.	16b-/yy	.	.	.	.
.	16c/yy	.	8b-X\	plai-	.
.	16e/JJyy	.	.	.	.
!	!	!	!LO:SIC:s=(8a\L:v	!	!
4F\yy	16ryy	.	8a\L	-sir	.
.	16c/LLyy	.	.	.	.
!	!	!	!LO:SIC:s=8cc\J):v	!	!
.	16f/yy	.	8cc\J	.	.
.	16a/yy	.	.	.	.
8F#X\yy	16e-X/yy	.	8r	.	.
.	16cc/JJyy	.	.	.	.
=30	=30	=30	=30	=30	=30
4G\yy	16en/LLyy	<	8cc\	tout	.
.	16cc/yy	.	.	.	.
.	16f/yy	.	8dd\	fi-	.
.	16dd/yy	.	.	.	.
8GG/yy	16d/yy	.	8bn\	-ni-	.
.	16bn/JJyy	.	.	.	.
4C/yy	16e/LLyy	.	(4gg\	-ra,	.
.	16g/yy	.	.	.	.
.	16cc/yy	.	.	.	.
.	16d/yy	.	.	.	.
8Gyy 8GG^<yy\	16f/yy	.	8ff\)	.	.
!	!LO:SIC:s=16bny/JJyy:v	!	!	!	!
.	16bn/JJyy	[[	.	.	.
=31	=31	=31	=31	=31	=31
4C/yy	16e/LLyy	.	8ee\	tout	.
.	16cc/yy	.	.	.	.
.	16f/yy	.	8ff\	fi-	.
.	16dd/yy	.	.	.	.
8GG/yy	16d/yy	.	8dd\	-ni-	.
.	16bn/JJyy	.	.	.	.
4.CC/yy	16e/LLyy	>	4cc\	-ra.	.
.	16cc/yy	.	.	.	.
.	16c/yy	.	.	.	.
.	16b-X/yy	.	.	.	.
.	16B-/yy	.	8r	.	.
.	16g/JJyy	]]	.	.	.
=32	=32	=32	=32	=32	=32
4.FF/yy	16ryy	.	4a/	Ah!	.
.	16A/LLyy	.	.	.	.
.	16c/yy	.	.	.	.
.	16f/yy	.	.	.	.
!	!LO:TX:a:i:t=sti-rac chia-to	!	!	!	!
.	16A/yy	.	16g/	dès	.
.	16c/JJyy	.	16f/	l`in-	.
!	!	!	!LO:SIC:s=(16e/LL:v	!	!
4BB-/yy	16ryy	.	16e/LL	-stant	.
!	!	!	!LO:SIC:s=16d/JJ):v	!	!
.	16B-/LLyy	.	16d/JJ	.	.
.	16d/yy	.	[>4b-^>/	ma	.
.	16g/yy	.	.	.	.
8ryy	16B-/yy	.	.	.	.
.	16d/JJyy	.	.	.	.
!!LO:LB:g=original
=33	=33	=33	=33	=33	=33
4.GG/yy	16ryy	.	4b-/]	.	.
.	16B-/LLyy	.	.	.	.
.	16d/yy	.	.	.	.
.	16g/yy	.	.	.	.
.	16B-/yy	.	16a/	jeune	.
.	16d/JJyy	.	16g/	a-	.
4C/yy	16ryy	.	16f/	-mi-	.
.	16c/LLyy	.	16e/	-e	.
.	16e/yy	.	[>4cc^>/	que	.
.	16g/yy	.	.	.	.
8ryy	16c/yy	.	.	.	.
.	16e/JJyy	.	.	.	.
=34	=34	=34	=34	=34	=34
4.AA/yy	16ryy	.	4cc/]	.	.
.	16c/LLyy	.	.	.	.
.	16e/yy	.	.	.	.
.	16a/yy	.	.	.	.
.	16c/yy	.	16b-/	le	.
.	16e/JJyy	.	16a/	des-	.
!	!	!	!LO:SIC:s=(16g/LL:v	!	!
4D/yy	16ryy	.	16g/LL	-tin	.
!	!	!	!LO:SIC:s=16f/JJ):v	!	!
.	16d/LLyy	.	16f/JJ	.	.
!	!	!	!LO:SIC:s=([4dd^\:v	!	!
.	16f/yy	.	[4dd^\	nous	.
.	16a/yy	.	.	.	.
8ryy	16d/yy	.	.	.	.
.	16b-/JJyy	.	.	.	.
=35	=35	=35	=35	=35	=35
4E/yy	16b-/LLyy	.	16dd\LL]	.	.
!	!	!	!LO:SIC:s=16cc\JJ):v	!	!
.	16c/yy	.	16cc\JJ	.	.
.	16b-yy 16g/yy	.	(16bn\LL	sé-	.
.	16c/yy	.	16cc\	.	.
8C/yy	16b-yy 16g/yy	.	16b-X\JJ)	.	.
.	16c/JJyy	.	16cc\	-pa-	.
!	!	!	!	!LO:MO:mod=-ra,	!
4F\yy	16ryy	.	(16a\LL	-ra	.
.	16c/LLyy	.	16cc\	.	.
.	16ayy 16f/yy	.	16ff\	.	.
.	16c/yy	.	16ee\	.	.
8C/yy	16ayy 16f/yy	.	16dd\	.	.
.	16c/JJyy	.	16cc\JJ)	.	.
=36	=36	=36	=36	=36	=36
4G\yy	16ryy	.	(16cc\LL	nous	.
.	16c/LLyy	.	16b-\JJ)	.	.
.	16b-yy 16e/yy	.	(16a\LL	sé-	.
.	16c/yy	.	16b-\	.	.
8C/yy	16b-yy 16e/yy	.	16cc\JJ)	.	.
.	16c/JJyy	.	16b-\	pa-	.
4F\yy	16ryy	.	4a/	-ra	.
.	16c/LLyy	.	.	.	.
.	16ayy 16f/yy	.	.	.	.
.	16c/yy	.	.	.	.
8ryy	16ayy 16f/yy	.	8r	.	.
.	16c/JJyy	.	.	.	.
!!LO:LB:g=original
=37	=37	=37	=37	=37	=37
!	!LO:MO:mod=!LO&colon;TX&colon;a&colon;i&colon;t=rall.	!	!	!	!
!	!LO:TX:a:i:t=rall	!	!	!	!
!	!	!	!LO:MO:mod=!LO&colon;TX&colon;a&colon;i&colon;t=rall.	!	!
!	!	!	!null	!	!
4BB-/yy	16ryy	.	(>8.g/	pei-	.
.	16B-/LLyy	.	.	.	.
.	16d/yy	.	.	.	.
.	16g/yy	.	16d/)	.	.
!	!	!	!LO:MO:mod=!null:null	!	!
!	!	!	!LO:TX:b:i:t=rall	!	!
8ryy	16B-/yy	.	16b-/	-ne	.
.	16d/JJyy	.	16a/	ja-	.
4BB-;/yy	4gyy 4dyy 4B-;/yy	.	16g;/	-mais,	.
.	.	.	16cc#X^/	pei-	.
.	.	.	16dd/	-ne	.
.	.	.	16a/	ja-	.
!	!LO:MO:mod=!LO&colon;TX&colon;a&colon;B&colon;t=a tempo	!	!LO:MO:mod=!LO&colon;TX&colon;a&colon;B&colon;t=a tempo	!	!
!	!LO:TX:a:i:t=a tempo	!	!LO:TX:a:i:t=a tempo	!	!
8ryy	8ryy	.	16b-/	-mais	.
.	.	.	16g/	ne	.
=38	=38	=38	=38	=38	=38
4C/yy	16A/LLyy	.	(8a/L	fi-	.
.	16f/yy	.	.	.	.
.	16B-/yy	.	8b-/J)	.	.
.	16b-/yy	.	.	.	.
8CC/yy	16G/yy	.	8g/	-ni-	.
.	16g/JJyy	.	.	.	.
!	!	!	!LO:SIC:s=(4cc^>/:v	!	!
4AA^>/yy	16A/LLyy	.	((4cc^>/	-ra,	.
.	16c/yy	.	.	.	.
.	16f/yy	.	.	.	.
.	16A/yy	.	.	.	.
!	!	!	!LO:SIC:s=8b-/):v	!	!
8BB-/yy	16B-/yy	.	8b-/))	.	.
.	16g/JJyy	.	.	.	.
=39	=39	=39	=39	=39	=39
4C/yy	16A/LLyy	.	8a/	ne	.
.	16f/yy	.	.	.	.
.	16B-/yy	.	8b-/	fi-	.
.	16g/yy	.	.	.	.
8CC/yy	16G/yy	.	8g/	-ni-	.
.	16e/JJyy	.	.	.	.
4AA^>/yy	16A/LLyy	.	(>4cc^>/	-ra,	.
.	16c/yy	.	.	.	.
.	16f/yy	.	.	.	.
.	16A/yy	.	.	.	.
8BB-/yy	16B-/yy	.	8b-/)	.	.
.	16g/JJyy	.	.	.	.
=40	=40	=40	=40	=40	=40
!	!	!	!	!	!LO:DY:b
8C/Lyy	8fyyL 8A/yy	fy	8a/	ne	f
8Cyy 8CC/yy	8gyy 8B-/yy	.	8b-/	fi-	.
8CyyJ 8CC/yy	8eyyJ 8G/yy	.	8g/	-ni-	.
16FF/LLyy	4fyy 4A/yy	.	4f/	-ra.	.
16AA/yy	.	.	.	.	.
16C/yy	.	.	.	.	.
16F/yy	.	.	.	.	.
16A/yy	16ryy	.	8r	.	.
16c/JJyy	16a/yy	.	.	.	.
=41	=41	=41	=41	=41	=41
!	!	!	!LO:MO:mod=!null:null	!	!
!	!	!	!LO:TX:b:t=4.	!	!
!	!	!	!LO:MO:mod=!null:null	!	!
!	!	!	!LO:N:vis=00	!	!
16C\LLyy	4cc\yy	py	0.r	.	.
16G\yy	.	.	.	.	.
16B-\yy	.	.	.	.	.
16e\yy	.	.	.	.	.
16B-\yy	8b-\yy	.	.	.	.
16G\JJyy	.	.	.	.	.
!	!LO:MO:mod=!LO&colon;TX&colon;b&colon;i&colon;t=espress.	!	!	!	!
!	!LO:TX:b:i:t=espres	!	!	!	!
16C\LLyy	8g/LsSSS<yy	.	.	.	.
16G\yy	.	.	.	.	.
16B-\yy	8a/yy	.	.	.	.
16e\yy	.	.	.	.	.
16B-\yy	8b-/Jyy	.	.	.	.
16G\JJyy	.	.	.	.	.
=42	=42	=42	=42	=42	=42
16C\LLyy	16cc\LLyy	.	.	.	.
16A\yy	16dd\yy	.	.	.	.
16c\yy	16cc\yy	.	.	.	.
16f\yy	16bn\yy	.	.	.	.
16A\yy	16cc\yy	.	.	.	.
16F\JJyy	16a\JJyy	.	.	.	.
16C\LLyy	16ff'\LLyy	.	.	.	.
16A\yy	(y16ee\yy	.	.	.	.
16c\yy	16dd\)yy	.	.	.	.
16f\yy	16cc'\yy	.	.	.	.
16A\yy	(y16b-X\yy	.	.	.	.
16F\JJyy	16a\JJ)yy	.	.	.	.
=43	=43	=43	=43	=43	=43
16CC/LLyy	4cc\yy	.	.	.	.
16GG/yy	.	.	.	.	.
16BB-/yy	.	.	.	.	.
16E/yy	.	.	.	.	.
16BB-/yy	8b-\yy	.	.	.	.
16GG/JJyy	.	.	.	.	.
16CC/LLyy	8g/Lyy	.	.	.	.
16GG/yy	.	.	.	.	.
16BB-/yy	8a/yy	.	.	.	.
16E/yy	.	.	.	.	.
16G/yy	8g/Jyy	.	.	.	.
16B-/JJyy	.	.	.	.	.
=44	=44	=44	=44	=44	=44
(y16c\LLyy	(y4.g^>/yy	.	.	.	.
16Bn\yy	.	.	.	.	.
16d-X^\yy	.	.	.	.	.
16c\yy	.	.	.	.	.
16B\yy	.	.	.	.	.
16c\JJyy	.	.	.	.	.
4A\)yy	4f/)yy	.	.	.	.
8r;yy	8r;yy	.	.	.	.
==	==	==	==	==	==
*-	*-	*-	*-	*-	*-
!!!system-decoration: s1 {(s2,s3)}
!!!RDF**kern: > = above
!!!RDF**kern: < = below
!!!filter-modern: sic -sq | shed -e "s/LO:DY:(a|b|rj)/LO:dy:$1/L" | shed -e "s/TX(.*):t=P:/tx$1:t=P:/LG" | modori -m | autostem -r | shed -e "s/yy//" | shed -k -e "s/\(y([^y])/($1/" | shed -e "s/-//B" | shed -k -e "s/[<>]//g"
!!!ENC: Tomasz Grochalski
!!!END: 2021-07-28
!!!EED-modern: Antoni Szymański
!!!END-modern: 2022-09-11
!!!YEC: Copyright 2022 Narodowy Instytut Fryderyka Chopina (https://polishscores.org)
!!!YEM: License CC-BY-4.0 (https://creativecommons.org/licenses/by/4.0)
